X: 10538
T: Dooney Rock, The
R: jig
M: 6/8
K: Adorian
|:B|AGE EDE|GAB cBA|GDB, G,B,D|GAB c2B|
AGE EDE|GAB c^cd|eag edB|cA^G A2:|
|:B|Ace ~a3|bag edB|GBd ~g3|age dBG|
Ace ~a3|bag edB|GBd ~g3|edB A2:|

